frontend/web/public/bath.svg

<svg width="512" height="512" viewBox="0 0 512 512" fill="none" xmlns="http://www.w3.org/2000/svg">
<path d="M387.999 468.175H124.001C108.537 468.175 96 455.639 96 440.174V429.873H416V440.174C416 455.639 403.464 468.175 387.999 468.175Z" fill="#B0ED94"/>
<path d="M146 440.175V429.874H96V440.175C96 455.639 108.536 468.176 124 468.176H174C158.536 468.175 146 455.639 146 440.175Z" fill="#97DA7B"/>
<path d="M432 52.1748C440.837 52.1748 448 45.0114 448 36.1748C448 27.3382 440.837 20.1748 432 20.1748C423.163 20.1748 416 27.3382 416 36.1748C416 45.0114 423.163 52.1748 432 52.1748Z" fill="#EAF6FF"/>
<path d="M406.032 123.7C418.2 123.7 428.064 113.836 428.064 101.668C428.064 89.4998 418.2 79.6357 406.032 79.6357C393.864 79.6357 384 89.4998 384 101.668C384 113.836 393.864 123.7 406.032 123.7Z" fill="#EAF6FF"/>
<path d="M406.896 440.175H105.104C81.385 440.175 61.142 423.027 57.243 399.631L32 248.175H480L454.757 399.631C450.858 423.027 430.615 440.175 406.896 440.175Z" fill="#97DA7B"/>
<path d="M480 248.175H32L57.243 399.63C61.142 423.026 81.385 440.175 105.104 440.175H145.104C121.385 440.175 101.142 423.027 97.243 399.631L80.911 301.642C79.387 292.499 86.438 284.176 95.707 284.176H474L480 248.175Z" fill="#79CF59"/>
<path d="M488 264.175H24C10.745 264.175 0 253.43 0 240.175C0 226.92 10.745 216.175 24 216.175H488C501.255 216.175 512 226.92 512 240.175C512 253.43 501.255 264.175 488 264.175Z" fill="#B0ED94"/>
<path d="M40 240.176C40 226.921 50.745 216.176 64 216.176H24C10.745 216.176 0 226.921 0 240.176C0 253.431 10.745 264.176 24 264.176H64C50.745 264.175 40 253.43 40 240.176Z" fill="#97DA7B"/>
<path d="M476.969 216.175C475.016 184.201 448.465 158.873 416 158.873C405.838 158.873 396.255 161.355 387.825 165.745C382.799 147.757 366.29 134.561 346.698 134.561C346.248 134.561 345.799 134.569 345.352 134.583C340.612 116.168 323.895 102.561 304 102.561C292.335 102.561 281.763 107.239 274.057 114.821C263.51 96.5058 243.737 84.1748 221.085 84.1748C215.613 84.1748 210.308 84.8948 205.262 86.2448C194.789 67.6498 174.862 55.0908 152 55.0908C118.264 55.0908 90.916 82.4388 90.916 116.175C90.916 116.381 90.917 116.587 90.919 116.793C57.648 121.291 32 149.804 32 184.308V216.176H65.285C77.83 216.176 88 226.346 88 238.891V288.826C88 301.84 98.119 312.923 111.125 313.386C124.778 313.871 136 302.946 136 289.401V238.891C136 226.346 146.17 216.176 158.715 216.176L476.969 216.175Z" fill="#EAF6FF"/>
<path d="M234.984 85.7656C235.076 85.9256 235.167 86.0856 235.258 86.2456C235.532 86.1726 235.806 86.1016 236.082 86.0316C235.717 85.9396 235.351 85.8506 234.984 85.7656Z" fill="#CBE2FF"/>
<path d="M117.996 288.825V238.89C117.996 226.345 107.826 216.175 95.2812 216.175H65.2812C77.8263 216.175 87.9962 226.345 87.9962 238.89V288.825C87.9962 301.839 98.1152 312.922 111.121 313.385C117.177 313.6 122.754 311.571 127.086 308.064C121.522 303.515 117.996 296.507 117.996 288.825Z" fill="#D8ECFE"/>
<path d="M120.919 116.793C120.917 116.587 120.916 116.381 120.916 116.175C120.916 87.6148 140.517 63.6318 167.001 56.9458C162.202 55.7338 157.176 55.0908 152.001 55.0908C118.265 55.0908 90.917 82.4398 90.917 116.175C90.917 116.381 90.918 116.587 90.92 116.793C57.648 121.291 32 149.804 32 184.308V216.176H62C62 216.176 62 193.742 62 184.308C62 149.804 87.648 121.291 120.919 116.793Z" fill="#D8ECFE"/>
<path d="M195.775 376.175H177C163.193 376.175 152 364.982 152 351.175C152 347.309 155.134 344.175 159 344.175H195.775V376.175Z" fill="#FFD064"/>
<path d="M314.577 400.175H268.86C285.522 390.135 296.531 371.665 295.98 350.669C295.179 320.138 270.541 296.175 239.999 296.175C209.072 296.175 184 321.247 184 352.175C184 374.572 197.148 393.898 216.147 402.855C197.427 409.403 184 427.221 184 448.175C184 474.685 205.49 496.175 232 496.175H264C328 496.175 360 470.5 360 400.175V384.58C360 380.231 354.547 378.365 351.821 381.754C344.808 390.473 332.891 400.175 314.577 400.175Z" fill="#FFF39F"/>
<path d="M214 448.175C214 427.221 227.427 409.403 246.147 402.855C227.148 393.898 214 374.572 214 352.175C214 326.421 231.385 304.728 255.06 298.19C250.272 296.876 245.222 296.175 239.999 296.175C209.072 296.175 184 321.247 184 352.175C184 374.572 197.148 393.898 216.147 402.855C197.427 409.403 184 427.22 184 448.175C184 474.685 205.49 496.175 232 496.175H262C235.49 496.176 214 474.685 214 448.175Z" fill="#FFE07D"/>
<path d="M215.999 367.902C211.731 367.902 208.273 364.443 208.273 360.176V352.176C208.273 347.908 211.732 344.45 215.999 344.45C220.266 344.45 223.725 347.909 223.725 352.176V360.176C223.725 364.443 220.266 367.902 215.999 367.902Z" fill="#A87567"/>
<path d="M335.999 40.5272C331.731 40.5272 328.273 37.0682 328.273 32.8012V23.5512C328.273 19.2832 331.732 15.8252 335.999 15.8252C340.266 15.8252 343.725 19.2842 343.725 23.5512V32.8012C343.725 37.0682 340.266 40.5272 335.999 40.5272Z" fill="#D8ECFE"/>
<path d="M335.999 88.5262C331.731 88.5262 328.273 85.0672 328.273 80.8002V71.5512C328.273 67.2832 331.732 63.8252 335.999 63.8252C340.266 63.8252 343.725 67.2842 343.725 71.5512V80.8002C343.725 85.0672 340.266 88.5262 335.999 88.5262Z" fill="#D8ECFE"/>
<path d="M316.623 59.9022H307.374C303.106 59.9022 299.648 56.4432 299.648 52.1762C299.648 47.9092 303.107 44.4502 307.374 44.4502H316.623C320.891 44.4502 324.349 47.9092 324.349 52.1762C324.349 56.4432 320.891 59.9022 316.623 59.9022Z" fill="#D8ECFE"/>
<path d="M364.624 59.9022H355.374C351.106 59.9022 347.648 56.4432 347.648 52.1762C347.648 47.9092 351.107 44.4502 355.374 44.4502H364.624C368.892 44.4502 372.35 47.9092 372.35 52.1762C372.35 56.4432 368.891 59.9022 364.624 59.9022Z" fill="#D8ECFE"/>
<path d="M288.842 460.608H247.999C243.731 460.608 240.273 457.149 240.273 452.882C240.273 448.615 243.732 445.156 247.999 445.156H288.842C295.999 445.156 301.821 439.334 301.821 432.177C301.821 427.909 305.28 424.451 309.547 424.451C313.814 424.451 317.273 427.91 317.273 432.177C317.274 447.853 304.52 460.608 288.842 460.608Z" fill="#FFD064"/>
</svg>

<svg id="Capa_1" enable-background="new 0 0 512 512" height="512" viewBox="0 0 512 512" width="512" xmlns="http://www.w3.org/2000/svg"><g><path d="m387.999 468.175h-263.998c-15.464 0-28.001-12.536-28.001-28.001v-10.301h320v10.301c0 15.465-12.536 28.001-28.001 28.001z" fill="#b0ed94"/><path d="m146 440.175v-10.301h-50v10.301c0 15.464 12.536 28.001 28 28.001h50c-15.464-.001-28-12.537-28-28.001z" fill="#97da7b"/><circle cx="432" cy="36.175" fill="#eaf6ff" r="16"/><circle cx="406.032" cy="101.668" fill="#eaf6ff" r="22.032"/><path d="m406.896 440.175h-301.792c-23.719 0-43.962-17.148-47.861-40.544l-25.243-151.456h448l-25.243 151.456c-3.899 23.396-24.142 40.544-47.861 40.544z" fill="#97da7b"/><path d="m480 248.175h-448l25.243 151.455c3.899 23.396 24.142 40.545 47.861 40.545h40c-23.719 0-43.962-17.148-47.861-40.544l-16.332-97.989c-1.524-9.143 5.527-17.466 14.796-17.466h378.293z" fill="#79cf59"/><path d="m488 264.175h-464c-13.255 0-24-10.745-24-24 0-13.255 10.745-24 24-24h464c13.255 0 24 10.745 24 24 0 13.255-10.745 24-24 24z" fill="#b0ed94"/><path d="m40 240.176c0-13.255 10.745-24 24-24h-40c-13.255 0-24 10.745-24 24 0 13.255 10.745 24 24 24h40c-13.255-.001-24-10.746-24-24z" fill="#97da7b"/><path d="m476.969 216.175c-1.953-31.974-28.504-57.302-60.969-57.302-10.162 0-19.745 2.482-28.175 6.872-5.026-17.988-21.535-31.184-41.127-31.184-.45 0-.899.008-1.346.022-4.74-18.415-21.457-32.022-41.352-32.022-11.665 0-22.237 4.678-29.943 12.26-10.547-18.315-30.32-30.646-52.972-30.646-5.472 0-10.777.72-15.823 2.07-10.473-18.595-30.4-31.154-53.262-31.154-33.736 0-61.084 27.348-61.084 61.084 0 .206.001.412.003.618-33.271 4.498-58.919 33.011-58.919 67.515v31.868h33.285c12.545 0 22.715 10.17 22.715 22.715v49.935c0 13.014 10.119 24.097 23.125 24.56 13.653.485 24.875-10.44 24.875-23.985v-50.51c0-12.545 10.17-22.715 22.715-22.715h318.254z" fill="#eaf6ff"/><path d="m234.988 85.765c.092.16.183.32.274.48.274-.073.548-.144.824-.214-.365-.092-.731-.181-1.098-.266z" fill="#cbe2ff"/><path d="m118 288.825v-49.935c0-12.545-10.17-22.715-22.715-22.715h-30c12.545 0 22.715 10.17 22.715 22.715v49.935c0 13.014 10.119 24.097 23.125 24.56 6.056.215 11.633-1.814 15.965-5.321-5.564-4.549-9.09-11.557-9.09-19.239z" fill="#d8ecfe"/><path d="m120.919 116.793c-.002-.206-.003-.412-.003-.618 0-28.56 19.601-52.543 46.085-59.229-4.799-1.212-9.825-1.855-15-1.855-33.736 0-61.084 27.349-61.084 61.084 0 .206.001.412.003.618-33.272 4.498-58.92 33.011-58.92 67.515v31.868h30s0-22.434 0-31.868c0-34.504 25.648-63.017 58.919-67.515z" fill="#d8ecfe"/><path d="m195.775 376.175h-18.775c-13.807 0-25-11.193-25-25 0-3.866 3.134-7 7-7h36.775z" fill="#ffd064"/><path d="m314.577 400.175h-45.717c16.662-10.04 27.671-28.51 27.12-49.506-.801-30.531-25.439-54.494-55.981-54.494-30.927 0-55.999 25.072-55.999 56 0 22.397 13.148 41.723 32.147 50.68-18.72 6.548-32.147 24.366-32.147 45.32 0 26.51 21.49 48 48 48h32c64 0 96-25.675 96-96v-15.595c0-4.349-5.453-6.215-8.179-2.826-7.013 8.719-18.93 18.421-37.244 18.421z" fill="#fff39f"/><path d="m214 448.175c0-20.954 13.427-38.772 32.147-45.32-18.999-8.957-32.147-28.283-32.147-50.68 0-25.754 17.385-47.447 41.06-53.985-4.788-1.314-9.838-2.015-15.061-2.015-30.927 0-55.999 25.072-55.999 56 0 22.397 13.148 41.723 32.147 50.68-18.72 6.548-32.147 24.365-32.147 45.32 0 26.51 21.49 48 48 48h30c-26.51.001-48-21.49-48-48z" fill="#ffe07d"/><g><g><path d="m216 367.902c-4.268 0-7.726-3.459-7.726-7.726v-8c0-4.268 3.459-7.726 7.726-7.726s7.726 3.459 7.726 7.726v8c0 4.267-3.459 7.726-7.726 7.726z" fill="#a87567"/></g></g><g><path d="m336 40.527c-4.268 0-7.726-3.459-7.726-7.726v-9.25c0-4.268 3.459-7.726 7.726-7.726s7.726 3.459 7.726 7.726v9.25c0 4.267-3.459 7.726-7.726 7.726z" fill="#d8ecfe"/></g><g><path d="m336 88.526c-4.268 0-7.726-3.459-7.726-7.726v-9.249c0-4.268 3.459-7.726 7.726-7.726s7.726 3.459 7.726 7.726v9.249c0 4.267-3.459 7.726-7.726 7.726z" fill="#d8ecfe"/></g><g><path d="m316.624 59.902h-9.249c-4.268 0-7.726-3.459-7.726-7.726s3.459-7.726 7.726-7.726h9.249c4.268 0 7.726 3.459 7.726 7.726s-3.458 7.726-7.726 7.726z" fill="#d8ecfe"/></g><g><path d="m364.625 59.902h-9.25c-4.268 0-7.726-3.459-7.726-7.726s3.459-7.726 7.726-7.726h9.25c4.268 0 7.726 3.459 7.726 7.726s-3.459 7.726-7.726 7.726z" fill="#d8ecfe"/></g><g><g><path d="m288.843 460.608h-40.843c-4.268 0-7.726-3.459-7.726-7.726s3.459-7.726 7.726-7.726h40.843c7.157 0 12.979-5.822 12.979-12.979 0-4.268 3.459-7.726 7.726-7.726s7.726 3.459 7.726 7.726c.001 15.676-12.753 28.431-28.431 28.431z" fill="#ffd064"/></g></g></g></svg>
